chrome/icons/warning.svg

<svg height="16" viewBox="8 16 945 945" width="16" xmlns="http://www.w3.org/2000/svg" xmlns:xlink="http://www.w3.org/1999/xlink">
  <path d="M103.5,961C90.5,961 78.25,958.5 66.75,953.5C55.25,948.5 45.0833,941.667 36.25,933C27.4167,924.333 20.4167,914.25 15.25,902.75C10.0833,891.25 7.5,879 7.5,866C7.5,850.667 10.8333,836 17.5,822L394,69C402,53 413.833,40.1667 429.5,30.5C445.167,20.8334 462,16.0001 480,16C498,16.0001 514.833,20.8334 530.5,30.5C546.167,40.1667 558,53 566,69L942.5,822C949.167,836 952.5,850.667 952.5,866C952.5,879 949.917,891.25 944.75,902.75C939.583,914.25 932.667,924.333 924,933C915.333,941.667 905.167,948.5 893.5,953.5C881.833,958.5 869.5,961 856.5,961ZM856.5,897C864.5,897 871.833,894 878.5,888C885.167,882 888.5,874.833 888.5,866.5C888.5,860.5 887.333,855.167 885,850.5L508.5,97.5C505.833,91.8334 501.917,87.5 496.75,84.5C491.583,81.5 486,80 480,80C474,80 468.417,81.5834 463.25,84.75C458.083,87.9167 454.167,92.1667 451.5,97.5L75,850.5C72.6667,855.167 71.5,860.333 71.5,866C71.5,874.667 74.75,882 81.25,888C87.75,894 95.1667,897 103.5,897ZM448,608L448,352C448,343.333 451.167,335.833 457.5,329.5C463.833,323.167 471.333,320 480,320C488.667,320 496.167,323.167 502.5,329.5C508.833,335.833 512,343.333 512,352L512,608C512,616.667 508.833,624.167 502.5,630.5C496.167,636.833 488.667,640 480,640C471.333,640 463.833,636.833 457.5,630.5C451.167,624.167 448,616.667 448,608ZM432,736C432,722.667 436.667,711.333 446,702C455.333,692.667 466.667,688 480,688C493.333,688 504.667,692.667 514,702C523.333,711.333 528,722.667 528,736C528,749.333 523.333,760.667 514,770C504.667,779.333 493.333,784 480,784C466.667,784 455.333,779.333 446,770C436.667,760.667 432,749.333 432,736Z" fill="context-fill" fill-opacity="context-fill-opacity">
  </path>
</svg>

<svg xmlns="http://www.w3.org/2000/svg" width="16" height="16" viewBox="8 16 945 945"><path fill="context-fill" fill-opacity="context-fill-opacity" d="M103.5 961q-19.5 0-36.75-7.5T36.25 933t-21-30.25T7.5 866q0-23 10-44L394 69q12-24 35.5-38.5T480 16t50.5 14.5T566 69l376.5 753q10 21 10 44 0 19.5-7.75 36.75T924 933t-30.5 20.5-37 7.5Zm753-64q12 0 22-9t10-21.5q0-9-3.5-16l-376.5-753q-4-8.5-11.75-13T480 80t-16.75 4.75T451.5 97.5L75 850.5q-3.5 7-3.5 15.5 0 13 9.75 22t22.25 9ZM448 608V352q0-13 9.5-22.5T480 320t22.5 9.5T512 352v256q0 13-9.5 22.5T480 640t-22.5-9.5T448 608m-16 128q0-20 14-34t34-14 34 14 14 34-14 34-34 14-34-14-14-34"/></svg>
